X:23
T:On the Green Carpet
%%score 1 { 2 | 3 }
L:1/8
Q:1/4=110
M:6/8
I:linebreak $
K:F
V:1 treble nm="Violin"
V:2 treble nm="Piano"
V:3 bass 
V:1
|:"F" AAA A2 G | F2 F F3 |"C7" G2 B G2 A | G2 G G3 |$"F" A2 B c2 c | A2 B c2 A |"F" F2 G"C" A2 G | 
w: On the green car- pet|here we stand,|Take your true love|by the hand,|Take the one that|you love best, Be-|fore you close your|
"F" F2 F F3 |$"F" AAA AGG | F2 F F3 |"C7" G2 B G2 A | G2 G G3 |$ AAB c2 c | AAB c2 A | 
w: eyes to rest.|Oh, what a beau- ti- ful|choice you've made!|Don't you wish you'd|long- er stayed?|Give her a kiss and|send her a- way, And|
"F" FFG"C7" A2 G |"F" F2 F F3 :| 
w: tell her you can no|long- er stay.|
V:2
|: [CFA]AA [CFA]GG | [A,CF]2 F [A,CF]3 | [CEG]2 B [CEG]2 A | [CEG]2 G [EG]3 |$ [CFA]2 B [FAc]2 c | 
[CFA]2 B [FAc]2 A | [A,CF]2 G [CEA]2 G | [A,CF]2 F [A,CF]3 |$ [CFA]AA [CFA]GG | 
[A,CF]2 F [A,CF]3 | [CEG]2 B [CEG]2 A | [CEG]2 G [EG]3 |$ [CFA]2 B [FAc]2 c | [CFA]2 B [FAc]2 A | 
[A,CF]2 G [CEA]2 G | [A,CF]2 F [A,CF]3 :| 
V:3
|: F,,2 C, A,2 z | F,,2 C, A,2 z | C,2 G, E2 z | C,2 G, E2 z |$ F,,2 C, A,2 z | F,,2 C, A,2 z | 
F,,2 F, C,2 C | F,,2 C, A,2 z |$ F,,2 C, A,2 z | F,,2 C, A,2 z | C,2 G, E2 z | C,2 G, E2 z |$ 
F,,2 C, A,2 z | F,,2 C, A,2 z | F,,2 C, A,2 z | F,,2 C, A,2 z :| 



